!!!OTL: Der Tochter Wunsch.
!!!OTL-incipit: O MODER ICH WELL EN DING HAN
!!!ARE: Europa, Mitteleuropa, Deutschland, Koeln
!!!SCT: Z1167
!!!YEM: Copyright 1995, estate of Helmut Schaffrath.
**kern	**text
*ICvox	*
*M2/4	*
*k[f#c#g#d#]	*
*E:	*
!LO:TX:a:t=Aus Köln.	!
{8B	O
=1	=1
8e	Moder,
8f#	ich
8g#	well
8a	en
=2	=2
4b	Ding
4b}	han!
=3	=3
{8cc#	Wat
16cc#	für
16cc#	en
8cc#	Ding,
8cc#	min
=4	=4
8b	Her-
8b	-ʒens-
8b}	-lind?
{8a	En
=5	=5
4g#	Ding,
4f#	en
=6	=6
4e	Ding!
4r}	.
=7	=7
{8.e	Wellſt
16f#	du
8g#	dann
8a	e
=8	=8
8b	Pöppchen
16cc#L	.
16bJ	.
8b	han?
8r}	.
=9	=9
{4ee	Ne,
16ff#L	Mo-
16eeJ	.
16dd#L	-der,
16cc#J	.
=10	=10
4b	ne!
8r}	.
{8g#	ihr
=11	=11
8.a	ſitt
16a	ken
8a	go-
16bL	-de
16aJ	.
=12	=12
4g#	Moder,
8g#}	.
{8g#	ihr
=13	=13
8a	künnt
8a	dat
8a	Ding
16bL	nit
16aJ	.
=14	=14
4g#	ro-
4g#}	-den,
=15	=15
{8a	wat
8a	dat
8a	Kind
16bL	für'n
16aJ	.
=16	=16
8g#	Ding
8g#	well
8g#	han,
8r}	.
=17	=17
{8.b	ding
16b	der-
8b	-ling
8b	ding
=18	=18
4g#	ding!
8r}	.
==	==
!!!AGN: Liebes - Lied
!!!ONB: ESAC (Essen Associative Code) Database: ZUCCAL
!!!AMT: simple duple
!!!AIN: vox
!!!EED: Helmut Schaffrath
!!!EEV: 1.0
!!!GTL: V. Lieder der Minne.
!!!URL-scan: https://www.digitale-sammlungen.de/de/view/bsb11160573?page=354
!!!ENC: Anna Maria Matuszewska
!!!EEV: 2025/02/05
*-	*-
